storage/app/icons/phosphoricons/duotone/map-trifold-duotone.svg

<svg xmlns="http://www.w3.org/2000/svg" fill="currentColor" viewBox="0 0 256 256"><path d="M160 72v144l-64-32V40Z" opacity=".2"/><path d="M228.92 49.69a8 8 0 0 0-6.86-1.45l-61.13 15.28-61.35-30.68a8 8 0 0 0-5.52-.6l-64 16A8 8 0 0 0 24 56v144a8 8 0 0 0 9.94 7.76l61.13-15.28 61.35 30.68a8.15 8.15 0 0 0 3.58.84 8 8 0 0 0 1.94-.24l64-16A8 8 0 0 0 232 200V56a8 8 0 0 0-3.08-6.31M104 52.94l48 24v126.12l-48-24Zm-64 9.31 48-12v127.5l-48 12Zm176 131.5-48 12V78.25l48-12Z"/></svg>

<svg xmlns="http://www.w3.org/2000/svg" viewBox="0 0 256 256" fill="currentColor"><path d="M160,72V216L96,184V40Z" opacity="0.2"/><path d="M228.92,49.69a8,8,0,0,0-6.86-1.45L160.93,63.52,99.58,32.84a8,8,0,0,0-5.52-.6l-64,16A8,8,0,0,0,24,56V200a8,8,0,0,0,9.94,7.76l61.13-15.28,61.35,30.68A8.15,8.15,0,0,0,160,224a8,8,0,0,0,1.94-.24l64-16A8,8,0,0,0,232,200V56A8,8,0,0,0,228.92,49.69ZM104,52.94l48,24V203.06l-48-24ZM40,62.25l48-12v127.5l-48,12Zm176,131.5-48,12V78.25l48-12Z"/></svg>
